!!!OTL: Die erzwungene Ehe Es hat ein Bauer braun Anneli fein,
!!!ARE: Europa, Mitteleuropa, Deutschland / France, Lothringen, Garburg
!!!YOR: 2, S. 242
!!    1932 aufgezeichnet
!!!SCT: Q0050
!!!YEM: Copyright 1995, estate of Helmut Schaffrath.
**kern
*ICvox
*Ivox
*M3/8
*k[f#]
*e:
{8b
=1
8gn
8f#
8e
=2
8dn
8e
8dn
=3
8gn
8b
8a
=4
4b}
{8b
=5
8b
8a
16gn
16f#
=6
8e
8e
8dn
=7
16f#
16a
8gn
8f#
=8
4e}
==
!!!AGN: Ballade, Hochzeit, Tod
!!!ONB: ESAC (Essen Associative Code) Database: BALLADE
!!!AMT: simple triple
!!!AIN: vox
!!!EED: Helmut Schaffrath
!!!EEV: 1.0
*-
